!!!OTL: "Reimlied" EINS ZWEI DREI ALT IST NICHT NEU
!!!ARE: Europa, Mitteleuropa, Deutschland, Franken
!!!SCT: Z1356
!!!YEM: Copyright 1995, estate of Helmut Schaffrath.
**kern
*ICvox
*Ivox
*M2/4
*k[b-]
*F:
{4f
4f
=1
2cc}
=2
{4b-
8g
8e
=3
4f
4r}
=4
{4a
8a
8cc
=5
4cc
4b-}
=6
{4g
8g
8b-
=7
4a
4r}
=8
{4f
8f
8f
=9
4g
4b-}
=10
{8a
8cc
8a
8g
=11
4f
4r}
==
!!!AGN: Kinder - Lied
!!!ONB: ESAC (Essen Associative Code) Database: ZUCCAL
!!!AMT: simple duple
!!!AIN: vox
!!!EED: Helmut Schaffrath
!!!EEV: 1.0
*-
